Papirus-GTK/24x24/apps/kblocks.svg

<svg height="24" width="24" xmlns="http://www.w3.org/2000/svg"><g transform="matrix(.499995 0 0 .499995 .00002 .00012)"><rect fill="#e94a63" height="18" rx=".89999998" transform="matrix(0 -1 -1 0 0 0)" width="18" x="-22" y="-44"/><rect fill="#e94a63" height="18" rx=".89999998" transform="matrix(0 -1 -1 0 0 0)" width="18" x="-22" y="-22"/><rect fill="#e94a63" height="18" rx=".89999998" transform="matrix(0 -1 -1 0 0 0)" width="18" x="-44" y="-44"/><rect fill="#86b837" height="18" rx=".89999998" transform="matrix(0 -1 -1 0 0 0)" width="18" x="-44" y="-22"/><circle cx="35" cy="14" opacity=".2" r="4"/><circle cx="35" cy="13" fill="#fff" r="4"/><circle cx="13" cy="36" opacity=".2" r="4"/><circle cx="13" cy="35" fill="#fff" r="4"/><path d="m4 20.1v1c0 .498.4018.9.9004.9h16.2c.498 0 .9-.402.9-.9v-1c0 .498-.402.9-.9.9h-16.2c-.4982 0-.9-.402-.9-.9zm22 0v1c0 .498.402.9.9.9h16.199c.499 0 .901-.402.901-.9v-1c0 .498-.402.9-.9.9h-16.2c-.498 0-.9-.402-.9-.9zm-22 22v1c0 .498.4018.9.9004.9h16.2c.498 0 .9-.402.9-.9v-1c0 .498-.402.9-.9.9h-16.2c-.4982 0-.9-.402-.9-.9zm22 0v1c0 .498.402.9.9.9h16.199c.499 0 .901-.402.901-.9v-1c0 .498-.402.9-.9.9h-16.2c-.498 0-.9-.402-.9-.9z" opacity=".3"/><path d="m4.9004 4c-.4986 0-.9004.4018-.9004.9004v1c0-.4986.4018-.9004.9004-.9004h16.2c.498 0 .9.4018.9.9004v-1c0-.4986-.402-.9004-.9-.9004zm22 0c-.498 0-.9.4018-.9.9004v1c0-.4986.402-.9004.9-.9004h16.2c.498 0 .9.4018.9.9004v-1c0-.4986-.402-.9004-.9-.9004zm-22 22c-.4986 0-.9004.402-.9004.9v1c0-.498.4018-.9.9004-.9h16.2c.498 0 .9.402.9.9v-1c0-.498-.402-.9-.9-.9zm22 0c-.498 0-.9.402-.9.9v1c0-.498.402-.9.9-.9h16.199c.499 0 .901.402.901.9v-1c0-.498-.402-.9-.9-.9h-16.199z" fill="#fff" opacity=".2"/></g></svg>

<?xml version="1.0" encoding="UTF-8" standalone="no"?>
<!-- Created with Inkscape (http://www.inkscape.org/) -->

<svg
   xmlns:dc="http://purl.org/dc/elements/1.1/"
   xmlns:cc="http://creativecommons.org/ns#"
   xmlns:rdf="http://www.w3.org/1999/02/22-rdf-syntax-ns#"
   xmlns:svg="http://www.w3.org/2000/svg"
   xmlns="http://www.w3.org/2000/svg"
   xmlns:sodipodi="http://sodipodi.sourceforge.net/DTD/sodipodi-0.dtd"
   xmlns:inkscape="http://www.inkscape.org/namespaces/inkscape"
   id="svg2817"
   height="24"
   width="24"
   version="1.0"
   inkscape:version="0.91 r13725"
   sodipodi:docname="kblocks.svg">
  <defs
     id="defs16" />
  <sodipodi:namedview
     pagecolor="#ffffff"
     bordercolor="#666666"
     borderopacity="1"
     objecttolerance="10"
     gridtolerance="10"
     guidetolerance="10"
     inkscape:pageopacity="0"
     inkscape:pageshadow="2"
     inkscape:window-width="1600"
     inkscape:window-height="845"
     id="namedview14"
     showgrid="false"
     inkscape:zoom="1"
     inkscape:cx="12"
     inkscape:cy="3.8644068"
     inkscape:window-x="0"
     inkscape:window-y="32"
     inkscape:window-maximized="1"
     inkscape:current-layer="svg2817" />
  <metadata
     id="metadata57">
    <rdf:RDF>
      <cc:Work
         rdf:about="">
        <dc:format>image/svg+xml</dc:format>
        <dc:type
           rdf:resource="http://purl.org/dc/dcmitype/StillImage" />
        <dc:title />
      </cc:Work>
    </rdf:RDF>
  </metadata>
  <g
     id="g4144"
     transform="matrix(0.499995,0,0,0.499995,2.0001e-5,1.2e-4)">
    <rect
       x="-22"
       y="-44"
       width="18"
       height="18"
       ry="0.89999998"
       rx="0.89999998"
       transform="matrix(0,-1,-1,0,0,0)"
       id="rect3349"
       style="fill:#e94a63" />
    <rect
       x="-22"
       y="-22"
       width="18"
       height="18"
       ry="0.89999998"
       rx="0.89999998"
       transform="matrix(0,-1,-1,0,0,0)"
       id="rect3351"
       style="fill:#e94a63" />
    <rect
       x="-44"
       y="-44"
       width="18"
       height="18"
       ry="0.89999998"
       rx="0.89999998"
       transform="matrix(0,-1,-1,0,0,0)"
       id="rect3359"
       style="fill:#e94a63" />
    <rect
       x="-44"
       y="-22"
       width="18"
       height="18"
       ry="0.89999998"
       rx="0.89999998"
       transform="matrix(0,-1,-1,0,0,0)"
       id="rect3361"
       style="fill:#86b837" />
    <circle
       r="4"
       cx="35"
       cy="14"
       id="circle4185"
       style="opacity:0.2" />
    <circle
       r="4"
       cy="13"
       cx="35"
       id="path4181"
       style="fill:#ffffff" />
    <circle
       r="4"
       cy="36"
       cx="13"
       id="circle4187"
       style="opacity:0.2" />
    <circle
       r="4"
       cx="13"
       cy="35"
       id="circle4183"
       style="fill:#ffffff" />
    <path
       d="m 4,20.1 0,1 C 4,21.598 4.4018,22 4.9004,22 l 16.2,0 c 0.498,0 0.9,-0.402 0.9,-0.9 l 0,-1 c 0,0.498 -0.402,0.9 -0.9,0.9 l -16.2,0 c -0.4982,0 -0.9,-0.402 -0.9,-0.9 z m 22,0 0,1 c 0,0.498 0.402,0.9 0.9,0.9 l 16.199,0 C 43.598,22 44,21.598 44,21.1 l 0,-1 C 44,20.598 43.598,21 43.1,21 L 26.9,21 C 26.402,21 26,20.598 26,20.1 Z m -22,22 0,1 C 4,43.598 4.4018,44 4.9004,44 l 16.2,0 c 0.498,0 0.9,-0.402 0.9,-0.9 l 0,-1 c 0,0.498 -0.402,0.9 -0.9,0.9 l -16.2,0 c -0.4982,0 -0.9,-0.402 -0.9,-0.9 z m 22,0 0,1 c 0,0.498 0.402,0.9 0.9,0.9 l 16.199,0 C 43.598,44 44,43.598 44,43.1 l 0,-1 C 44,42.598 43.598,43 43.1,43 L 26.9,43 C 26.402,43 26,42.598 26,42.1 Z"
       id="rect4189"
       inkscape:connector-curvature="0"
       style="opacity:0.3" />
    <path
       d="M 4.9004,4 C 4.4018,4 4,4.4018 4,4.9004 l 0,1 C 4,5.4018 4.4018,5 4.9004,5 l 16.2,0 c 0.498,0 0.9,0.4018 0.9,0.9004 l 0,-1 C 22.0004,4.4018 21.5984,4 21.1004,4 l -16.2,0 z m 22,0 c -0.498,0 -0.9,0.4018 -0.9,0.9004 l 0,1 C 26.0004,5.4018 26.4024,5 26.9004,5 l 16.2,0 c 0.498,0 0.9,0.4018 0.9,0.9004 l 0,-1 C 44.0004,4.4018 43.5984,4 43.1004,4 l -16.2,0 z m -22,22 C 4.4018,26 4,26.402 4,26.9 l 0,1 C 4,27.402 4.4018,27 4.9004,27 l 16.2,0 c 0.498,0 0.9,0.402 0.9,0.9 l 0,-1 c 0,-0.498 -0.402,-0.9 -0.9,-0.9 l -16.2,0 z m 22,0 c -0.498,0 -0.9,0.402 -0.9,0.9 l 0,1 c 0,-0.498 0.402,-0.9 0.9,-0.9 l 16.199,0 c 0.499,0 0.901,0.402 0.901,0.9 l 0,-1 c 0,-0.498 -0.402,-0.9 -0.9,-0.9 l -16.199,0 z"
       id="path4198"
       inkscape:connector-curvature="0"
       style="opacity:0.2;fill:#ffffff" />
  </g>
</svg>
